svg/weather/partly_cloud_night_fill.svg

<?xml version="1.0" encoding="UTF-8"?>
<svg width="24px" height="24px" viewBox="0 0 24 24" version="1.1" xmlns="http://www.w3.org/2000/svg" xmlns:xlink="http://www.w3.org/1999/xlink">
    <title>partly_cloud_night_fill</title>
    <g id="Icon" stroke="none" stroke-width="1" fill="none" fill-rule="evenodd">
        <g id="Weather" transform="translate(-865.000000, -240.000000)">
            <g id="partly_cloud_night_fill" transform="translate(865.000000, 240.000000)">
                <path d="M24,0 L24,24 L0,24 L0,0 L24,0 Z M12.5935,23.2578 L12.5819,23.2595 L12.5109,23.295 L12.4919,23.2987 L12.4767,23.295 L12.4057,23.2595 C12.3958,23.2564 12.387,23.259 12.3821,23.2649 L12.378,23.2758 L12.3609,23.7031 L12.3659,23.7235 L12.3769,23.7357 L12.4805,23.8097 L12.4953,23.8136 L12.5071,23.8097 L12.6107,23.7357 L12.6233,23.7197 L12.6267,23.7031 L12.6096,23.2758 C12.6076,23.2657 12.601,23.2593 12.5935,23.2578 Z M12.8584,23.1453 L12.8445,23.1473 L12.6598,23.2397 L12.6499,23.2499 L12.6472,23.2611 L12.6651,23.6906 L12.6699,23.7034 L12.6784,23.7105 L12.8793,23.8032 C12.8914,23.8069 12.9022,23.803 12.9078,23.7952 L12.9118,23.7812 L12.8777,23.1665 C12.8753,23.1546 12.8674,23.147 12.8584,23.1453 Z M12.143,23.1473 C12.1332,23.1424 12.1222,23.1453 12.1156,23.1526 L12.1099,23.1665 L12.0758,23.7812 C12.0751,23.7927 12.0828,23.8019 12.0926,23.8046 L12.1083,23.8032 L12.3092,23.7105 L12.3186,23.7024 L12.3225,23.6906 L12.3404,23.2611 L12.3372,23.2485 L12.3278,23.2397 L12.143,23.1473 Z" id="MingCute" fill-rule="nonzero"></path>
                <path d="M13.4062,4.01484 C14.4658,4.19928 15.4548,4.58914 16.3307,5.14192 C16.7914,4.52187 17.5293,4.12012 18.3611,4.12012 C19.3189,4.12012 20.1507,4.65222 20.5797,5.43602 C21.4165,5.80761 22,6.64507 22,7.6201 C22,8.85277 21.0664,9.86737 19.8677,9.99535 C20.0317,10.6385 20.1189,11.3124 20.1189,12.0067 C20.1189,16.0735 17.1263,19.4414 13.2232,20.0284 C13.7134,19.3078 14,18.4374 14,17.5001 C14,15.6874 12.9294,14.1272 11.386,13.4138 C11.0896,12.89 10.6966,12.4279 10.2311,12.052 C11.7603,11.1409 12.7847,9.47089 12.7847,7.56161 C12.7847,6.79335 12.6195,6.06639 12.3236,5.41208 C12.1709,5.07457 12.2174,4.68033 12.4442,4.38753 C12.6711,4.09473 13.0413,3.95132 13.4062,4.01484 Z M7.25,13.0001 C8.52064,13.0001 9.59001,13.8619 9.90552,15.0328 C11.0934,15.2266 12,16.2575 12,17.5001 C12,18.825572 10.9684531,19.9101378 9.66437437,19.9947823 L9.5,20.0001 L5,20.0001 C3.89543,20.0001 3,19.1047 3,18.0001 C3,17.062 3.64584,16.2748 4.51713,16.0588 C4.50581,15.9575 4.5,15.8545 4.5,15.7501 C4.5,14.2313 5.73122,13.0001 7.25,13.0001 Z M18.3611,6.12012 C18.1522,6.12012 17.9717,6.24144 17.8862,6.41745 C18.3414,6.89615 18.7388,7.43038 19.0672,8.00897 L19.6111,8.00897 C19.8259,8.00897 20,7.83486 20,7.6201 C20,7.42778 19.8594,7.26636 19.6754,7.23635 C19.3308667,7.18014556 19.0438543,6.94926852 18.912549,6.632297 L18.8708,6.50957 C18.8102,6.28449 18.6036,6.12012 18.3611,6.12012 Z" id="形状" fill="#09244B"></path>
            </g>
        </g>
    </g>
</svg>

<svg xmlns="http://www.w3.org/2000/svg" width="24" height="24"><g fill="none" fill-rule="evenodd"><path d="M24 0v24H0V0h24ZM12.594 23.258l-.012.002-.071.035-.02.004-.014-.004-.071-.036c-.01-.003-.019 0-.024.006l-.004.01-.017.428.005.02.01.013.104.074.015.004.012-.004.104-.074.012-.016.004-.017-.017-.427c-.002-.01-.009-.017-.016-.018Zm.264-.113-.014.002-.184.093-.01.01-.003.011.018.43.005.012.008.008.201.092c.012.004.023 0 .029-.008l.004-.014-.034-.614c-.003-.012-.01-.02-.02-.022Zm-.715.002a.023.023 0 0 0-.027.006l-.006.014-.034.614c0 .012.007.02.017.024l.015-.002.201-.093.01-.008.003-.011.018-.43-.003-.012-.01-.01-.184-.092Z"/><path fill="#09244B" d="M13.406 4.015a8.067 8.067 0 0 1 2.925 1.127 2.526 2.526 0 0 1 4.249.294 2.388 2.388 0 0 1-.712 4.56 8.114 8.114 0 0 1-6.644 10.033 4.499 4.499 0 0 0-1.837-6.615 4.773 4.773 0 0 0-1.156-1.362 5.22 5.22 0 0 0 2.554-4.49 5.2 5.2 0 0 0-.461-2.15 1 1 0 0 1 1.082-1.397ZM7.25 13c1.27 0 2.34.862 2.656 2.033a2.5 2.5 0 0 1-.242 4.962L9.5 20H5a2 2 0 0 1-.483-3.941A2.75 2.75 0 0 1 7.25 13Zm11.111-6.88a.528.528 0 0 0-.475.297 8.144 8.144 0 0 1 1.181 1.592h.544a.389.389 0 0 0 .064-.773 1 1 0 0 1-.762-.604l-.042-.122a.528.528 0 0 0-.51-.39Z"/></g></svg>
